React/src/assets/images/github-icon.svg

<svg width="130" height="130" viewBox="0 0 130 130" fill="none" xmlns="http://www.w3.org/2000/svg">
<circle cx="65" cy="65" r="65" fill="#A4A4A4"/>
<path d="M81.5039 127.461L80.1846 124.414H82.8232L81.5039 127.461Z" fill="white"/>
<path d="M81.7406 126.551C81.8288 125.759 82.8314 125.472 83.3256 126.096V126.096C83.7193 126.594 83.4821 127.331 82.8723 127.506V127.506C82.2625 127.681 81.6703 127.181 81.7406 126.551V126.551Z" fill="white"/>
<path d="M48.75 126.953L47.4307 123.906H50.0693L48.75 126.953Z" fill="white"/>
<path d="M47.0394 126.181C47.5336 125.557 48.5362 125.844 48.6244 126.636V126.636C48.6947 127.266 48.1025 127.766 47.4927 127.592V127.592C46.8829 127.417 46.6457 126.679 47.0394 126.181V126.181Z" fill="white"/>
<ellipse cx="43.291" cy="106.895" rx="13.3301" ry="5.83984" fill="white"/>
<ellipse cx="32.5682" cy="103.949" rx="8.26801" ry="4.24073" transform="rotate(61 32.5682 103.949)" fill="white"/>
<ellipse cx="23.6383" cy="95.2096" rx="7.28738" ry="3.17383" transform="rotate(30 23.6383 95.2096)" fill="white"/>
<ellipse cx="75.791" cy="63.8574" rx="31.3574" ry="30.0879" fill="white"/>
<ellipse cx="53.9551" cy="63.8574" rx="31.3574" ry="30.0879" fill="white"/>
<ellipse cx="64.873" cy="63.6035" rx="42.2754" ry="31.6113" fill="white"/>
<path d="M30.5387 27.5699C30.6632 27.0751 31.1401 26.7534 31.6455 26.8233L33.8628 27.1301C34.7715 27.2558 35.0455 28.4367 34.2849 28.9497L31.5215 30.8136C30.7609 31.3267 29.7687 30.6303 29.9925 29.7406L30.5387 27.5699Z" fill="white"/>
<ellipse cx="40.0323" cy="32.2135" rx="10.1498" ry="3.17383" transform="rotate(25 40.0323 32.2135)" fill="white"/>
<ellipse cx="32.1612" cy="37.2916" rx="10.1498" ry="3.17383" transform="rotate(-91 32.1612 37.2916)" fill="white"/>
<ellipse cx="37.959" cy="36.8164" rx="4.44336" ry="4.82422" fill="white"/>
<path d="M98.7488 26.6984C99.2542 26.6284 99.7312 26.9502 99.8556 27.4449L100.402 29.6156C100.626 30.5053 99.6334 31.2017 98.8728 30.6887L96.1094 28.8247C95.3489 28.3117 95.6228 27.1309 96.5316 27.0051L98.7488 26.6984Z" fill="white"/>
<ellipse cx="97.9997" cy="37.2401" rx="10.1498" ry="3.17383" transform="rotate(93 97.9997 37.2401)" fill="white"/>
<ellipse cx="90.3428" cy="31.8446" rx="10.1498" ry="3.17383" transform="rotate(-23 90.3428 31.8446)" fill="white"/>
<ellipse cx="92.9553" cy="37.0422" rx="4.44336" ry="4.82422" transform="rotate(68 92.9553 37.0422)" fill="white"/>
<ellipse cx="64.873" cy="102.832" rx="16.377" ry="13.7109" fill="white"/>
<rect x="48.75" y="102.832" width="32.5" height="24.8828" fill="white"/>
<path d="M48.0958 127.763C59.205 130.755 70.9093 130.745 82.0132 127.734L65 65L48.0958 127.763Z" fill="white"/>
<ellipse cx="83.4082" cy="125.074" rx="2.1582" ry="2.18359" fill="#A4A4A4"/>
<rect x="81.25" y="123.652" width="1.01562" height="1.52344" fill="#A4A4A4"/>
<ellipse cx="46.5918" cy="125.074" rx="2.1582" ry="2.18359" fill="#A4A4A4"/>
<rect x="47.7344" y="123.652" width="1.01562" height="1.52344" fill="#A4A4A4"/>
<path d="M48.758 103.011C47.5822 103.729 45.972 104.241 44.1643 104.472C42.3566 104.703 40.4468 104.641 38.7157 104.295C36.9847 103.949 35.5238 103.337 34.548 102.549C33.5721 101.761 33.1327 100.839 33.2945 99.9189L41.9834 100.293L48.758 103.011Z" fill="#A4A4A4"/>
<rect x="23.1055" y="97.5" width="4.57031" height="5.58594" fill="white"/>
<ellipse cx="21.8216" cy="100.933" rx="4.20815" ry="8.87058" transform="rotate(-36 21.8216 100.933)" fill="#A4A4A4"/>
<rect x="42.4023" y="99.2773" width="6.34766" height="3.80859" fill="#A4A4A4"/>
<ellipse cx="34.573" cy="100.171" rx="2.02063" ry="3.68164" transform="rotate(-49 34.573 100.171)" fill="#A4A4A4"/>
<ellipse cx="33.8113" cy="99.4091" rx="2.02063" ry="3.68164" transform="rotate(-49 33.8113 99.4091)" fill="#A4A4A4"/>
<path d="M27.3869 93.9256C27.5456 93.6408 27.7692 93.4343 28.042 93.3206C28.3147 93.2069 28.63 93.1888 28.9658 93.2675C29.3015 93.3461 29.6496 93.5197 29.9857 93.7761C30.3217 94.0324 30.6375 94.3653 30.9109 94.7514C31.1844 95.1375 31.4089 95.5675 31.5687 96.0111C31.7285 96.4548 31.8197 96.9015 31.8359 97.3198C31.8522 97.7381 31.7931 98.118 31.6627 98.4327C31.5324 98.7475 31.334 98.9896 31.0815 99.1419L29.4797 96.2728L27.3869 93.9256Z" fill="#A4A4A4"/>
<path d="M17.9633 93.4933C17.955 93.6097 17.895 93.7222 17.7853 93.762C17.686 93.798 17.5915 93.8051 17.505 93.7827C17.3715 93.748 17.2606 93.6438 17.1811 93.4783C17.1017 93.3128 17.0557 93.0906 17.0469 92.8292C17.0381 92.5678 17.0667 92.2743 17.1305 91.972C17.1943 91.6697 17.2914 91.3669 17.4143 91.0874C17.5372 90.8079 17.6825 90.5594 17.8386 90.3616C17.9947 90.1638 18.1575 90.022 18.3139 89.9475C18.3159 89.9466 18.3179 89.9456 18.3199 89.9447C18.5472 89.8389 18.6797 90.1079 18.5978 90.3449L18.4775 90.6934C18.44 90.8021 18.2998 90.8579 18.1959 90.9073V90.9073C18.1188 90.9441 18.0385 91.014 17.9615 91.1116C17.8845 91.2091 17.8128 91.3317 17.7522 91.4696C17.6916 91.6074 17.6437 91.7568 17.6122 91.9059C17.5808 92.055 17.5667 92.1997 17.571 92.3287C17.5753 92.4576 17.598 92.5672 17.6372 92.6488C17.6764 92.7305 17.7311 92.7818 17.7969 92.799V92.799C17.8893 92.823 18.0068 92.8838 18 92.979L17.9633 93.4933Z" fill="#A4A4A4"/>
<ellipse cx="18.4867" cy="94.3174" rx="3.6142" ry="1.1486" transform="rotate(25 18.4867 94.3174)" fill="#A4A4A4"/>
</svg>

<svg width="130" height="130" fill="none" xmlns="http://www.w3.org/2000/svg"><circle cx="65" cy="65" r="65" fill="#A4A4A4"/><path d="M81.504 127.461l-1.32-3.047h2.64l-1.32 3.047z" fill="#fff"/><path d="M81.74 126.551c.089-.792 1.091-1.079 1.586-.455a.891.891 0 11-1.585.455zM48.75 126.953l-1.32-3.047h2.64l-1.32 3.047z" fill="#fff"/><path d="M47.04 126.181c.494-.624 1.496-.337 1.584.455a.892.892 0 11-1.585-.455z" fill="#fff"/><ellipse cx="43.291" cy="106.895" rx="13.33" ry="5.84" fill="#fff"/><ellipse cx="32.568" cy="103.949" rx="8.268" ry="4.241" transform="rotate(61 32.568 103.949)" fill="#fff"/><ellipse cx="23.638" cy="95.21" rx="7.287" ry="3.174" transform="rotate(30 23.638 95.21)" fill="#fff"/><ellipse cx="75.791" cy="63.857" rx="31.357" ry="30.088" fill="#fff"/><ellipse cx="53.955" cy="63.857" rx="31.357" ry="30.088" fill="#fff"/><ellipse cx="64.873" cy="63.603" rx="42.275" ry="31.611" fill="#fff"/><path d="M30.539 27.57a1 1 0 011.106-.747l2.218.307c.909.126 1.182 1.307.422 1.82l-2.763 1.864c-.761.513-1.753-.184-1.53-1.073l.547-2.171z" fill="#fff"/><ellipse cx="40.032" cy="32.214" rx="10.15" ry="3.174" transform="rotate(25 40.032 32.214)" fill="#fff"/><ellipse cx="32.161" cy="37.292" rx="10.15" ry="3.174" transform="rotate(-91 32.161 37.292)" fill="#fff"/><ellipse cx="37.959" cy="36.816" rx="4.443" ry="4.824" fill="#fff"/><path d="M98.749 26.698a1 1 0 011.107.747l.546 2.17c.224.89-.769 1.587-1.53 1.074l-2.763-1.864c-.76-.513-.486-1.694.423-1.82l2.217-.307z" fill="#fff"/><ellipse cx="98" cy="37.24" rx="10.15" ry="3.174" transform="rotate(93 98 37.24)" fill="#fff"/><ellipse cx="90.343" cy="31.845" rx="10.15" ry="3.174" transform="rotate(-23 90.343 31.845)" fill="#fff"/><ellipse cx="92.955" cy="37.042" rx="4.443" ry="4.824" transform="rotate(68 92.955 37.042)" fill="#fff"/><ellipse cx="64.873" cy="102.832" rx="16.377" ry="13.711" fill="#fff"/><path fill="#fff" d="M48.75 102.832h32.5v24.883h-32.5z"/><path d="M48.096 127.763a65.004 65.004 0 0033.917-.029L65 65l-16.904 62.763z" fill="#fff"/><ellipse cx="83.408" cy="125.074" rx="2.158" ry="2.184" fill="#A4A4A4"/><path fill="#A4A4A4" d="M81.25 123.652h1.016v1.523H81.25z"/><ellipse cx="46.592" cy="125.074" rx="2.158" ry="2.184" fill="#A4A4A4"/><path fill="#A4A4A4" d="M47.734 123.652h1.016v1.523h-1.016zM48.758 103.011c-1.176.718-2.786 1.23-4.594 1.461a17.211 17.211 0 01-5.448-.177c-1.731-.346-3.192-.958-4.168-1.746s-1.415-1.71-1.254-2.63l8.69.374 6.774 2.718z"/><path fill="#fff" d="M23.105 97.5h4.57v5.586h-4.57z"/><ellipse cx="21.822" cy="100.933" rx="4.208" ry="8.871" transform="rotate(-36 21.822 100.933)" fill="#A4A4A4"/><path fill="#A4A4A4" d="M42.402 99.277h6.348v3.809h-6.348z"/><ellipse cx="34.573" cy="100.171" rx="2.021" ry="3.682" transform="rotate(-49 34.573 100.171)" fill="#A4A4A4"/><ellipse cx="33.811" cy="99.409" rx="2.021" ry="3.682" transform="rotate(-49 33.811 99.41)" fill="#A4A4A4"/><path d="M27.387 93.926c.159-.285.382-.492.655-.605.273-.114.588-.132.924-.053.335.078.684.252 1.02.508.336.256.651.59.925.975.273.386.498.816.658 1.26.16.444.25.89.267 1.309.016.418-.043.798-.173 1.113-.13.314-.329.557-.582.709l-1.601-2.87-2.093-2.346zM17.963 93.493c-.008.117-.068.23-.178.269a.47.47 0 01-.28.02c-.133-.034-.244-.138-.324-.304a1.657 1.657 0 01-.134-.649c-.009-.261.02-.555.084-.857a4.56 4.56 0 01.283-.885c.123-.28.268-.528.425-.725.156-.198.319-.34.475-.414l.006-.003c.227-.106.36.163.278.4l-.12.348c-.038.11-.178.165-.282.214a.704.704 0 00-.235.205c-.076.097-.148.22-.209.358-.06.137-.108.287-.14.436-.031.149-.045.294-.041.423a.816.816 0 00.066.32c.04.082.094.133.16.15.092.024.21.085.203.18l-.037.514z" fill="#A4A4A4"/><ellipse cx="18.487" cy="94.317" rx="3.614" ry="1.149" transform="rotate(25 18.487 94.317)" fill="#A4A4A4"/></svg>
